packages/ui-icons/svg/Solid/assignment.svg

<svg viewBox="0 0 1920 1920" version="1.1" xmlns="http://www.w3.org/2000/svg">
    <path d="M1468.2137,0 L1468.2137,551.144836 L840.269996,1179.08854 C808.646932,1210.71161 790.576609,1253.62862 790.576609,1298.80443 L790.576609,1298.80443 L790.576609,1694.09273 L1185.86491,1694.09273 C1231.04072,1694.09273 1273.95774,1676.02241 1305.5808,1644.39935 L1305.5808,1644.39935 L1468.2137,1481.76644 L1468.2137,1919.97177 L0,1919.97177 L0,0 L1468.2137,0 Z M1597.64239,581.299687 C1619.77853,559.163542 1655.46742,559.163542 1677.60356,581.299687 L1677.60356,581.299687 L1903.4826,807.178718 C1925.5058,829.201924 1925.5058,864.89081 1903.4826,887.026955 L1903.4826,887.026955 L1225.8455,1564.66405 C1215.22919,1575.16742 1200.88587,1581.15322 1185.86491,1581.15322 L1185.86491,1581.15322 L903.516125,1581.15322 L903.516125,1298.80443 C903.516125,1283.78347 909.501919,1269.44016 920.005294,1258.93678 L920.005294,1258.93678 Z M677.637094,1129.39516 L338.818547,1129.39516 L338.818547,1242.33467 L677.637094,1242.33467 L677.637094,1129.39516 Z M903.516125,903.516125 L338.818547,903.516125 L338.818547,1016.45564 L903.516125,1016.45564 L903.516125,903.516125 Z M1637.62298,701.015573 L1548.06194,790.576609 L1694.09273,936.607403 L1783.65377,847.046367 L1637.62298,701.015573 Z M1129.39516,338.818547 L338.818547,338.818547 L338.818547,677.637094 L1129.39516,677.637094 L1129.39516,338.818547 Z" stroke="none" stroke-width="1" fill-rule="evenodd"/>
</svg>

<svg viewBox="0 0 1920 1920" xmlns="http://www.w3.org/2000/svg">
    <path d="M1468.214 0v551.145L840.27 1179.089c-31.623 31.623-49.693 74.54-49.693 119.715v395.289h395.288c45.176 0 88.093-18.07 119.716-49.694l162.633-162.633v438.206H0V0h1468.214Zm129.428 581.3c22.137-22.136 57.825-22.136 79.962 0l225.879 225.879c22.023 22.023 22.023 57.712 0 79.848l-677.638 677.637c-10.616 10.503-24.96 16.49-39.98 16.49H903.516v-282.35c0-15.02 5.986-29.364 16.49-39.867Zm-920.005 548.095H338.82v112.94h338.818v-112.94Zm225.88-225.879H338.818v112.94h564.697v-112.94Zm734.106-202.5-89.561 89.56 146.03 146.031 89.562-89.56-146.031-146.031Zm-508.228-362.197H338.82v338.818h790.576V338.82Z" fill-rule="evenodd"/>
</svg>
